resources/images/autobus.svg

<svg width="64" height="60" viewBox="0 0 64 60" fill="none" xmlns="http://www.w3.org/2000/svg">
<g>
<path d="M58.1597 9.32876H56.5435L53.274 3.11828C52.2674 1.19784 50.2758 -0.00432825 48.1085 1.17114e-05H15.8894C13.7199 -0.00432825 11.7304 1.19784 10.7216 3.11828L7.45437 9.32876H5.8381C2.61641 9.3331 0.00433898 11.9458 0 15.1682V20.5931C0 21.4915 0.728949 22.2206 1.62712 22.2206C2.52529 22.2206 3.25424 21.4915 3.25424 20.5931V15.1682C3.25641 13.7425 4.41275 12.5859 5.8381 12.5837H53.9357V48.0499C53.9314 50.936 51.5905 53.2752 48.7051 53.2752H15.2949C12.4117 53.2731 10.0729 50.9338 10.0708 48.0499V35.898C12.8651 38.6517 16.1497 42.6271 20.5017 42.3407H43.4983C45.7177 42.5143 52.2565 40.2315 50.2454 37.328C49.6163 36.6336 48.5142 36.6228 47.8677 37.302C46.7026 38.4477 45.1319 39.0901 43.4983 39.0857H20.5017C18.8681 39.0901 17.2974 38.4477 16.1323 37.302L10.0578 31.3497V19.6318C10.0578 17.5161 6.80786 17.4966 6.80353 19.6318V48.0499C6.80353 52.7978 10.7216 56.6257 15.4641 56.5302C15.4663 57.8864 15.1474 59.9306 17.0913 60C19.0351 59.9306 18.7162 57.8843 18.7184 56.5302H45.2946C45.2968 57.8864 44.9779 59.9306 46.9218 60C48.8656 59.9306 48.5467 57.8843 48.5489 56.5302C53.2827 56.6127 57.1856 52.7892 57.1856 48.0499V12.5837C58.9646 12.3732 60.7089 13.1848 60.7458 15.1682V20.5931C60.7544 22.7197 63.9913 22.7241 64 20.5931V15.1682C63.9892 11.9458 61.3814 9.33744 58.1597 9.32876ZM11.1317 9.32876L13.6027 4.63509C14.0496 3.78663 14.9304 3.25498 15.8894 3.25498H48.1085C49.0674 3.25498 49.9482 3.78663 50.3951 4.63509L52.8683 9.32876H11.1317Z" fill="#1F294C"/>
<path d="M44.625 47.8092C44.6771 50.8212 49.1571 50.8212 49.207 47.8092C49.1549 44.7973 44.6749 44.7973 44.625 47.8092Z" fill="#1F294C"/>
<path d="M14.7969 47.8092C14.8489 50.8212 19.3289 50.8212 19.3788 47.8092C19.3268 44.7973 14.8468 44.7973 14.7969 47.8092Z" fill="#1F294C"/>
<path d="M27.4079 46.1816C25.284 46.1903 25.2775 49.4279 27.4079 49.4366H36.587C38.7109 49.4279 38.7175 46.1903 36.587 46.1816H27.4079Z" fill="#1F294C"/>
</g>
</svg>

<svg width="64" height="60" fill="none" xmlns="http://www.w3.org/2000/svg"><g fill="#1F294C"><path d="M58.16 9.329h-1.616l-3.27-6.21A5.82 5.82 0 0 0 48.108 0H15.89a5.824 5.824 0 0 0-5.167 3.118l-3.268 6.21H5.838A5.848 5.848 0 0 0 0 15.169v5.425a1.628 1.628 0 0 0 3.254 0v-5.425a2.59 2.59 0 0 1 2.584-2.584h48.098V48.05a5.233 5.233 0 0 1-5.23 5.225H15.294a5.23 5.23 0 0 1-5.224-5.225V35.898c2.794 2.754 6.079 6.73 10.43 6.443h22.997c2.22.173 8.759-2.11 6.747-5.013a1.63 1.63 0 0 0-2.377-.026 6.211 6.211 0 0 1-4.37 1.784H20.502a6.211 6.211 0 0 1-4.37-1.784l-6.074-5.952V19.632c0-2.116-3.25-2.135-3.254 0V48.05c0 4.748 3.918 8.576 8.66 8.48.002 1.356-.317 3.4 1.627 3.47 1.944-.07 1.625-2.116 1.627-3.47h26.577c.002 1.356-.317 3.4 1.627 3.47 1.944-.07 1.625-2.116 1.627-3.47 4.734.083 8.637-3.74 8.637-8.48V12.584c1.779-.21 3.523.6 3.56 2.584v5.425c.008 2.127 3.245 2.131 3.254 0v-5.425a5.857 5.857 0 0 0-5.84-5.84Zm-47.028 0 2.47-4.694a2.585 2.585 0 0 1 2.287-1.38h32.22c.958 0 1.84.532 2.286 1.38l2.473 4.694H11.132Z"/><path d="M44.625 47.81c.052 3.011 4.532 3.011 4.582 0-.052-3.013-4.532-3.013-4.582 0ZM14.797 47.81c.052 3.011 4.532 3.011 4.582 0-.052-3.013-4.532-3.013-4.582 0ZM27.408 46.182c-2.124.008-2.13 3.246 0 3.255h9.179c2.124-.01 2.13-3.247 0-3.255h-9.18Z"/></g></svg>
